source/img/icon-notice.svg

<svg width="40" height="40" viewBox="0 0 40 40" fill="none" xmlns="http://www.w3.org/2000/svg">
<path d="M31.25 0C28.6838 0 26.6675 1.7625 25.22 4.4825L25.1938 4.4675C23.0913 8.58375 19.9613 11.25 16.5325 11.25H15.7037H10.195H5C2.19625 11.25 0 13.9963 0 17.5C0 21.0063 2.19625 23.75 5 23.75C6.37875 23.755 7.49375 24.87 7.49375 26.25V37.5C7.49375 38.8812 8.61375 40 9.99375 40H14.9937C16.3738 40 17.4937 38.8812 17.4937 37.5V36.25C17.4937 35 16.2437 34.4412 16.2437 33.75V25C16.2437 24.9713 16.2638 24.9513 16.2662 24.9225C16.2787 24.7437 16.3275 24.5787 16.4062 24.4287C16.4287 24.3875 16.4525 24.355 16.48 24.3188C16.58 24.17 16.7062 24.0475 16.86 23.9525C16.8675 23.9475 16.87 23.94 16.8775 23.935C16.8825 23.935 16.8862 23.93 16.8912 23.93C16.9912 23.8737 17.1112 23.8612 17.2238 23.83C20.3787 24.165 23.235 26.7113 25.195 30.5462L25.2262 30.5312C26.675 33.2425 28.6863 35 31.25 35C36.995 35 40 26.1962 40 17.5C40 8.80375 36.995 0 31.25 0ZM25 17.5C25 16.2038 25.0763 14.9513 25.205 13.75H28.75C30.13 13.75 31.25 15.43 31.25 17.5C31.25 19.5725 30.13 21.25 28.75 21.25H25.205C25.0763 20.0487 25 18.7987 25 17.5ZM2.5 17.5C2.5 15.43 3.62 13.75 5 13.75H10.195H11.25H13.7675C12.9925 14.6613 12.5 15.9838 12.5 17.5C12.5 19.0187 12.9925 20.3412 13.7675 21.25H11.25H5C3.62 21.25 2.5 19.5725 2.5 17.5ZM14.9937 37.5H9.99375V26.25C9.99375 25.3388 9.75 24.4875 9.3225 23.75H10.195V23.765H13.955C13.8212 24.1537 13.7437 24.5662 13.7437 25V33.75C13.7437 34.9538 14.4163 35.755 14.8175 36.2325C14.8725 36.2988 14.9375 36.3662 14.9937 36.44V37.5ZM16.5325 21.265H16.25V21.25C14.87 21.25 13.75 19.5725 13.75 17.5C13.75 15.43 14.87 13.75 16.25 13.75H16.5325C18.89 13.75 21.0975 12.8225 23.04 11.2275C22.6825 13.24 22.5 15.3713 22.5 17.5C22.5 19.6362 22.6825 21.775 23.0425 23.7887C21.0987 22.1925 18.89 21.265 16.5325 21.265ZM31.25 32.5C28.7275 32.5 26.5625 28.9113 25.5737 23.75H28.75C31.5525 23.75 33.75 21.0063 33.75 17.5C33.75 13.9963 31.5525 11.25 28.75 11.25H25.5737C26.5625 6.09125 28.7275 2.5 31.25 2.5C34.7025 2.5 37.5 9.21625 37.5 17.5C37.5 25.7838 34.7025 32.5 31.25 32.5Z" fill="#2196F3"/>
</svg>

<svg width="40" height="40" fill="none" xmlns="http://www.w3.org/2000/svg"><path d="M31.25 0c-2.566 0-4.582 1.762-6.03 4.482l-.026-.014c-2.103 4.116-5.233 6.782-8.662 6.782H5c-2.804 0-5 2.746-5 6.25 0 3.506 2.196 6.25 5 6.25a2.5 2.5 0 012.494 2.5V37.5a2.5 2.5 0 002.5 2.5h5a2.5 2.5 0 002.5-2.5v-1.25c0-1.25-1.25-1.809-1.25-2.5V25c0-.029.02-.049.022-.078a1.24 1.24 0 01.14-.493.843.843 0 01.074-.11c.1-.149.226-.271.38-.366.008-.005.01-.013.018-.018.005 0 .008-.005.013-.005.1-.056.22-.069.333-.1 3.155.335 6.011 2.881 7.971 6.716l.031-.015C26.675 33.243 28.686 35 31.25 35 36.995 35 40 26.196 40 17.5S36.995 0 31.25 0zM25 17.5c0-1.296.076-2.549.205-3.75h3.545c1.38 0 2.5 1.68 2.5 3.75 0 2.073-1.12 3.75-2.5 3.75h-3.545A35.146 35.146 0 0125 17.5zm-22.5 0c0-2.07 1.12-3.75 2.5-3.75h8.768c-.776.911-1.268 2.234-1.268 3.75 0 1.519.492 2.841 1.268 3.75H5c-1.38 0-2.5-1.677-2.5-3.75zm12.494 20h-5V26.25c0-.911-.244-1.762-.671-2.5h.872v.015h3.76A3.777 3.777 0 0013.744 25v8.75c0 1.204.672 2.005 1.074 2.483.055.066.12.133.176.207v1.06zm1.538-16.235h-.282v-.015c-1.38 0-2.5-1.677-2.5-3.75 0-2.07 1.12-3.75 2.5-3.75h.282c2.358 0 4.566-.928 6.508-2.523a36.148 36.148 0 00-.54 6.273c0 2.136.183 4.275.543 6.289-1.944-1.597-4.153-2.524-6.51-2.524zM31.25 32.5c-2.523 0-4.688-3.589-5.676-8.75h3.176c2.802 0 5-2.744 5-6.25 0-3.504-2.198-6.25-5-6.25h-3.176c.988-5.159 3.153-8.75 5.676-8.75 3.453 0 6.25 6.716 6.25 15 0 8.284-2.797 15-6.25 15z" fill="#2196F3"/></svg>
